X: 36784
T: Shepherdess, The
R: jig
M: 6/8
K: Gmajor
|:C|B,EG B2A|GEE ~E2 F|GFG B2 A|GFE ~D2 C|
B,EG B2A|GEE ~E2 g|edc B2 A|GFE ~D2:|
e|d2 c B2 A|G2 A B2 e|d2 c B2 A|GEE ~E2 e|
d2 c B2 A|G2 A B2 G|AGA B2 A|GFE D2 e|
d2 c B2 A|G2 A B2 e|d2 c B2 A|GEE ~E2 e/f/|
gfe dcB|AGA Bdg|edc B2 A|GFE ~D2 C||

